X: 1663
T: Sana Eller Ne Güzelsin Demesin
C: Faruk Kayacıklı
O: Turkey
F: http://compmusic.upf.edu/node/140
N: acemkurdi--sarki--kapali_curcuna--sana_eller--faruk_kayacikli
N: makam= acemkurdi
N: form= sarki
N: usul= kapali_curcuna = 10/8
M: 10/8
L: 1/16
K: C _B   
Q: 1/4=180
%%MIDI tuningsystem comma53
z4 e2f4f2 e2f6  | f4 e2f2 e2e2 d2e6  | \
w:   |   | 
z4 d2e4e2 d2e6  | d2e2 f2e2 d2e2 c2d6  | 
w:   |   | 
z4 c2d4_e4d4c2  | c2d2 _e2d2 c2B2 A2G6  | \
w:   |   | 
z4 A2B4B2 A2_e4d2  | 
w:   | 
c4 d2c2 B2B2 A2A6  | z4 e2f4f2 e2f6  | \
w:   |   | 
f4 e2f2 e2e2 d2e6  | z4 d2e4e2 d2e6  | 
w:   |   | 
d2e2 f2e2 d2e2 c2d6  | z4 c2d4_e4d4c2  | \
w:   |   | 
c2d2 _e2d2 c2B2 A2G6  | 
w:   | 
z4 A2B4B2 A2_e4d2  | c4 d2c2 B2B2 A2A6  | \
w:   |   | 
z4 e2f4f2 e2f6  | z4 a2g2 f2e2 d2c6  | 
w:  Sa na  el *  ler   |  ne  gü *  zel *  sin   | 
z4 d2e4f4a6  | g4 a4 g2f2 e2f6  | a8-a2a8-a2  | \
w:  de me sin  kıs  |  ka nı *  rım    |  ah   | 
b14b3ag2  | c'2b2 a2a2 g2f2 e2f6  | 
w:  ah   |   | 
z4 a2a2 g2g4a4g2  | g2f2 g4 f2f2 e2f6  | \
w:  de me *  sin  kıs  |  ka *  nı *  rım    | 
f3e d2c2 B2B2 A2A6  | 
w:  SAZ  | 
z4 e2f4f2 e2f6  | z4 a2g2 f2e2 d2c6  | \
w:  Sa na  el *  ler   |  ne  gü *  zel *  sin   | 
z4 d2e4f4a6  | g4 a4 g2f2 e2f6  | 
w:  de me sin  kıs  |  ka nı *  rım    | 
a8-a2a8-a2  | b14b3ag2  | c'2b2 a2a2 g2f2 e2f6  | \
w:  ah   |  ah   |   | 
z4 a2a2 g2g4a4g2  | 
w:  de me *  sin  kıs  | 
g2f2 g4 f2f2 e2f6  | f4 e2d2 c2a2 g2f6  | \
w:  ka *  nı *  rım    |  SAZ  | 
z4 d2e4f4g6  | d4 _e2d2 c2B2 A2A6  | 
w:  E le  yâr_ ol  |  ma  sa *  *  kın  *  sen   | 
z4 A2B4c4d6  | c4 d4 c2B2 A2B6  | d16-d4  | \
w:  gü ze lim  yal  |  va rı *  rım    |  ah   | 
c14c3BA2  | d2c2 B2B2 A2G4A6  | 
w:  ah   |   | 
z4 A2B4B4B4A2  | c4 c2B2 A2A8-A2  | f4 e2d2 c2a2 g2f6  | \
w:  gü ze lim  yal  |  va rı *  *  rım    |  SAZ  | 
z4 d2e4f4g6  | 
w:  E le  yâr_ ol  | 
d4 _e2d2 c2B2 A2A6  | z4 A2B4c4d6  | \
w:  ma  sa *  *  kın  *  sen   |  gü ze lim  yal  | 
c4 d4 c2B2 A2B6  | d16-d4  | c14c3BA2  | 
w:  va rı *  rım    |  ah   |  ah   | 
d2c2 B2B2 A2G4A6  | z4 A2B4B4B4A2  | \
w:   |  gü ze lim  yal  | 
c4 c2B2 A2A8-A2  | a4 b2a2 g2f2 g2a6  | 
w:  va rı *  *  rım    |  SAZ  | 
z4 a2f4e4d6  | ^3/4c6d4e2 fee6  | z4 d2e4f4^3/4g6  | \
w:  Gü le  meh tâ  |  ba  bü rün  *  *  de   |  se ni  hiç  gör  | 
a6f4f2 e2d2 ^c2d2  | 
w:  me sin  ağ  | 
a8-a2a8z2  | b14b3ag2  | c'2b2 a2a2 g2f2 e2f4z2  | \
w:  yâr   |  ah    |   | 
z4 a2a2 g2g4a4g2  | 
w:  Se ni  *  hiç  gör  | 
g4 f2f4e2 f2g4f2  | f16-f4  | f4 e2d2 c2a2 g2f6  | \
w:  me *  sin  ağ  |  yâr    |   | 
z4 d2e4f4g6  | 
w:  E le  yâr_ ol  | 
d4 _e2d2 c2B2 A2A6  | z4 A2B4c4d6  | \
w:  ma  sa *  *  kın  *  sen   |  gü ze lim  yal  | 
c4 d4 c2B2 A2B6  | d16-d4  | c14c3BA2  | 
w:  va rı *  rım    |  ah   |  ah   | 
d2c2 B2B2 A2G4A6  | z4 A2B4B4B4A2  | \
w:   |  gü ze lim  yal  | 
c4 c2B2 A2A8-A2  | |


